X:1
T:12 Deutsche und Italiänische Romantische Gesänge
T:Poesia di Metastasio [II]
T:Zwölf Deutsche und Italiänische Romantische Gesänge
T:7. Poesia di Metastasio (II)
T:Louise Reichardt
T:Pietro Metastasio
T:OpenScore (CC0)
T:OpenScore (CC0)
C:Louise Reichardt
Z:Pietro Metastasio
Z:OpenScore (CC0)
%%score 1 { 2 | 3 }
L:1/8
Q:1/4=80
M:4/4
K:Bb
V:1 treble nm="Voice"
V:2 treble nm="Piano"
V:3 bass 
V:1
"^Dolcemente" z8 | z8 | z8 | z8 | d2 c B c2 A2 | B4 F4 | d2 c B{d} c2 BA | B4 z2 B B | %8
w: ||||Van- ne fe- li- ce|ri- o|van- ne su- per- bo  al|mar! ah po-|
 B2 (e4{fede} f) g |{=e} f4 z4 | f4 _ed cB | d4 c2 z c | c3 d G3 c | (B2 A2) z2 c2 | c3 g g3 B | %15
w: tess' io  _ can-|giar|te- co * mia *|sor- te! or|or tu  ba- gne-|rai * quei|vez- zo- set- ti|
 ^G2 A2 z2 c2 | (!turn!f2 a3) g f =e | ed d3{g} f =e d | c4 TB4 | A4 z2 z c | (c2 f3) c B A | %21
w: ra- i che|vol- * gon la mia|vi- * ta e la mia|mor- *|te, che|vol- * gon la mia|
 AG Gd cB AG | F4{A} G4 | F4 z4 |!f! d2 c B c2 A2 | B4 F4 | d2 c B{d} c2 BA | B4 z2 B B | %28
w: vi- * ta e la * mia *|mor- *|te.|Van- ne fe- li- ce|ri- o|van- ne su- per- bo al|mar ah po-|
 B2 (e4{fede} f) g | f2 f2 ed cB | (B4{d} Tc4) | B4 z4 | z8 | z8 | z8 |] %35
w: tess' io  _ can-|giar te- co * mia *|sor- *|te.||||
V:2
!p! f!f! f'2 d' bfd'f | e e'2"_dim." d'/c'/ bac'e |!p! d f2 d BFdF | E e2 d/c/ BAcE | DFBF EFAF | %5
 DFBF EFAF | DFBF EFAF | DFBF[I:staff +1] DB,F,D, | G,B,EB, G,B,EB, | F,B,DB, F,B,DB, | %10
 F,B,DB, F,B,DB, | F,B,DB, F,A,CF |[I:staff -1] C=EBE CEBE | CFAF CFAF | C=EBE CEBE | CFAF C=EBE | %16
 CFcF CFcF | DFBF DFBF | CFAF B,EGE | A,DFD =EGBG | CFcF CFcF | DGBG DGBG | CFAF C=EGE | %23
 (FG"_cresc."AB cd) (3f_ec |!p! F!f!BdB"_dim." EAcA |!p! DFBF EFAF | DFBF EFAF | DFBF DFBF | %28
 EGBG EGBG | DFBF DFBF | DFBF CEAE |!p! D!f! [ff']2 d' bfd'f | e e'2 d'/c'/"_dim." bac'e | %33
 ed!p! cg B2{d} c2 | B2 ([DF]2 [B,D]2) z2 |] %35
V:3
 B,FDF B,FDF | F,FCF F,FCF | B,,F,D,F, B,,F,D,F, | F,,F,C,F, F,,F,C,F, | B,,4 F,4 | B,4 [F,C]4 | %6
 [B,,B,]4 [F,,F,]4 | [B,,,B,,]8 | E,4 E,4 | B,,4 B,,4 | F,,8 | F,,8 | [C,G,]8 | [C,F,]8 | [C,G,]8 | %15
 F,4 G,4 | A,4 A,4 | B,4 B,,4 | C,4 ^C,4 | D,4 =C,4 | A,,4 A,,4 | B,,4 B,,4 | C,4 C,4 | F,,4 z4 | %24
 B,4 F,4 | B,,4 [F,C]4 | B,4 [F,C]4 | [B,,B,]4 [B,,B,]4 | [E,B,]4 [E,B,]4 | [B,,B,]8 | [F,,F,]8 | %31
 B,,F,D,F, B,,F,D,F, | F,,F,C,F, F,,F,C,F, | B,,2 E,2 F,2 F,,2 | B,,2 z2 z4 |] %35

